X:61
T: KOMM DU BLANKER WEIHEDEGEN
N: B0546A
O: Europa, Mitteleuropa, Deutschland
R: Studenten -, Burschenschafts - Lied, national
M: 4/4
L: 1/16
K: F
c4c4 | f4A4G2d2c2B2 | B2A2A4
G4c4 | A2f2e2d2c4=B4 | c8
c4c4 | c2d2e2f2e2d2c2B2 | B2A2A4
d4c2B2 | A2c2f3dc3BA3G | G4F4
c4c4 | f4A4G2d2c2B2 | B2A2A4
G4c4 | A2f2e2d2c4=B4 | c8
c4c4 | c2d2e2f2e2d2c2B2 | B2A2A4
d4c2B2 | A2c2f3dc3BA3G | G4F4

@@@ Tune index: 2279
